svgs/sharp-light/font.svg

<svg xmlns="http://www.w3.org/2000/svg" viewBox="0 0 448 512"><!--! Font Awesome Pro 6.6.0 by @fontawesome - https://fontawesome.com License - https://fontawesome.com/license (Commercial License) Copyright 2024 Fonticons, Inc. --><path d="M209.3 41.8l4.1-9.8 21.2 0 4.1 9.8L410.6 448l21.4 0 16 0 0 32-16 0-80 0-16 0 0-32 16 0 23.9 0-40.6-96-222.5 0L72.1 448 96 448l16 0 0 32-16 0-80 0L0 480l0-32 16 0 21.4 0L209.3 41.8zM126.3 320l195.4 0L224 89.1 126.3 320z"/></svg>

<svg xmlns="http://www.w3.org/2000/svg" viewBox="0 0 448 512"><!--! Font Awesome Pro 6.4.2 by @fontawesome - https://fontawesome.com License - https://fontawesome.com/license (Commercial License) Copyright 2023 Fonticons, Inc. --><path d="M209.3 41.8l4.1-9.8h21.2l4.1 9.8L410.6 448H432h16v32H432 352 336V448h16 23.9l-40.6-96H112.8L72.1 448H96h16v32H96 16 0V448H16 37.4L209.3 41.8zM126.3 320H321.7L224 89.1 126.3 320z"/></svg>
